build/flags/CAF.svg

<svg xmlns="http://www.w3.org/2000/svg" fill="none" viewBox="0 0 28 28" focusable="false"><defs><filter id="CAF_svg__a"><feColorMatrix values="0 0 0 0 1 0 0 0 0 1 0 0 0 0 1 0 0 0 1 0"/></filter></defs><mask id="CAF_svg__b" width="28" height="20" x="0" y="4" maskUnits="userSpaceOnUse"><g filter="url(#CAF_svg__a)"><rect width="28" height="20" y="4" fill="#FFF" rx="3"/><rect width="28" height="20" y="4" stroke="#969696" stroke-opacity="0" stroke-width="0" rx="3"/></g></mask><path fill="none" d="M0 0H28V28H0z"/><rect width="28" height="20" y="4" fill="#FFF" rx="3"/><rect width="28" height="20" y="4" rx="3"/><g mask="url(#CAF_svg__b)"><path fill="#19BFBF" d="M0 4H28V24H0z"/><path d="M0 4H28V24H0z"/><path fill="#FFF" fill-rule="evenodd" d="M8.0282 9.50262C8.0105 9.39643 8.04518 9.28824 8.1213 9.21212L10.569 6.76438C10.6315 6.70187 10.7163 6.66675 10.8047 6.66675L12.4607 6.66675C12.5869 6.66675 12.7023 6.73808 12.7588 6.85101L13.2412 7.81582C13.2977 7.92875 13.4131 8.00008 13.5393 8.00008L15.794 8.00008C15.9202 8.00008 16.0357 8.07142 16.0921 8.18434L17.9079 11.8158C17.9643 11.9287 18.0798 12.0001 18.206 12.0001L19.3333 12.0001C19.608 12.0001 19.7648 12.3137 19.6 12.5334L18.018 14.6427C18.006 14.6587 17.9955 14.6757 17.9866 14.6936L17.3685 15.9297C17.3454 15.976 17.3333 16.027 17.3333 16.0788L17.3333 17.2547C17.3333 17.3065 17.3213 17.3575 17.2981 17.4038L16.6667 18.6667L16 20.0001L15.4255 21.1492C15.369 21.2621 15.2536 21.3334 15.1273 21.3334L14.206 21.3334C14.0798 21.3334 13.9643 21.2621 13.9079 21.1492L13.3685 20.0705C13.3454 20.0242 13.3333 19.9731 13.3333 19.9214L13.3333 16.1382C13.3333 16.0497 13.2982 15.965 13.2357 15.9024L12.7223 15.3891C12.6857 15.3525 12.6581 15.3079 12.6418 15.2588L12.076 13.5613C12.0306 13.4252 11.9032 13.3334 11.7597 13.3334L8.94904 13.3334C8.7861 13.3334 8.64703 13.2156 8.62024 13.0549L8.0282 9.50262Z"/><path d="M10.569 6.76438C10.6315 6.70187 10.7163 6.66675 10.8047 6.66675L12.4607 6.66675C12.5869 6.66675 12.7023 6.73808 12.7588 6.85101L13.2412 7.81582C13.2977 7.92875 13.4131 8.00008 13.5393 8.00008L15.794 8.00008C15.9202 8.00008 16.0357 8.07142 16.0921 8.18434L17.9079 11.8158C17.9643 11.9287 18.0798 12.0001 18.206 12.0001L19.3333 12.0001C19.608 12.0001 19.7648 12.3137 19.6 12.5334L18.018 14.6427C18.006 14.6587 17.9955 14.6757 17.9866 14.6936L17.3685 15.9297C17.3454 15.976 17.3333 16.027 17.3333 16.0788L17.3333 17.2547C17.3333 17.3065 17.3213 17.3575 17.2981 17.4038L16.6667 18.6667L16 20.0001L15.4255 21.1492C15.369 21.2621 15.2536 21.3334 15.1273 21.3334L14.206 21.3334C14.0798 21.3334 13.9643 21.2621 13.9079 21.1492L13.3685 20.0705C13.3454 20.0242 13.3333 19.9731 13.3333 19.9214L13.3333 16.1382C13.3333 16.0497 13.2982 15.965 13.2357 15.9024L12.7223 15.3891C12.6857 15.3525 12.6581 15.3079 12.6418 15.2588L12.076 13.5613C12.0306 13.4252 11.9032 13.3334 11.7597 13.3334L8.94904 13.3334C8.7861 13.3334 8.64703 13.2156 8.62024 13.0549L8.0282 9.50262C8.0105 9.39643 8.04518 9.28824 8.1213 9.21212L10.569 6.76438Z"/><path fill="#FFF" fill-rule="evenodd" d="M18.6667 17.6666C18.6667 17.4825 18.8159 17.3333 19 17.3333L19.6667 17.3333C19.8508 17.3333 20 17.4825 20 17.6666L20 18.5879C20 18.6396 19.9879 18.6907 19.9648 18.737L19.4255 19.8157C19.369 19.9286 19.2536 19.9999 19.1273 19.9999L19 19.9999C18.8159 19.9999 18.6667 19.8507 18.6667 19.6666L18.6667 17.6666Z"/><path d="M19.6667 17.3333C19.8508 17.3333 20 17.4825 20 17.6666L20 18.5879C20 18.6396 19.9879 18.6907 19.9648 18.737L19.4255 19.8157C19.369 19.9286 19.2536 19.9999 19.1273 19.9999L19 19.9999C18.8159 19.9999 18.6667 19.8507 18.6667 19.6666L18.6667 17.6666C18.6667 17.4825 18.8159 17.3333 19 17.3333L19.6667 17.3333Z"/></g></svg>

<svg xmlns="http://www.w3.org/2000/svg" fill="none" viewBox="0 0 28 28" focusable="false"><path fill="none" d="M0 0h28v28H0z"/><rect width="28" height="20" y="4" fill="#FFF" rx="3"/><rect width="28" height="20" y="4" rx="3"/><mask id="CAF_svg__a" width="28" height="20" x="0" y="4" mask-type="alpha" maskUnits="userSpaceOnUse"><rect width="28" height="20" y="4" fill="#FFF" rx="3"/><rect width="28" height="20" y="4" stroke="#979797" stroke-opacity="0" stroke-width="0" rx="3"/></mask><g mask="url(#CAF_svg__a)"><path fill="#19BFBF" d="M0 4h28v20H0z"/><path d="M0 4h28v20H0z"/></g><g mask="url(#CAF_svg__a)"><path fill="#FFF" fill-rule="evenodd" d="M8.02 9.5c-.01-.11.02-.22.1-.29l2.44-2.45c.07-.06.15-.1.24-.1h1.66c.12 0 .24.07.29.19l.49.96c.05.11.17.19.29.19h2.26c.13 0 .24.07.3.18l1.81 3.63c.06.11.17.19.3.19h1.13c.27 0 .43.31.27.53l-1.59 2.11c-.01.01-.02.03-.03.05l-.62 1.23q-.03.075-.03.15v1.18c0 .05-.01.1-.04.15l-.63 1.26L16 20l-.58 1.14c-.06.12-.17.19-.3.19h-.92c-.13 0-.24-.07-.3-.19l-.54-1.07a.4.4 0 0 1-.03-.15v-3.79c0-.09-.04-.17-.1-.23l-.51-.52a.22.22 0 0 1-.08-.13l-.57-1.69a.324.324 0 0 0-.32-.23H8.94c-.16 0-.3-.12-.32-.28z"/><path d="M10.56 6.76c.07-.06.15-.1.24-.1h1.66c.12 0 .24.07.29.19l.49.96c.05.11.17.19.29.19h2.26c.13 0 .24.07.3.18l1.81 3.63c.06.11.17.19.3.19h1.13c.27 0 .43.31.27.53l-1.59 2.11c-.01.01-.03.03-.03.05l-.62 1.23q-.03.075-.03.15v1.18c0 .05-.01.1-.04.15l-.63 1.26L16 20l-.58 1.14c-.06.12-.17.19-.3.19h-.92c-.13 0-.24-.07-.3-.19l-.54-1.07a.4.4 0 0 1-.03-.15v-3.79c0-.09-.04-.17-.1-.23l-.51-.52a.22.22 0 0 1-.08-.13l-.57-1.69a.324.324 0 0 0-.32-.23H8.94c-.16 0-.3-.12-.32-.28l-.6-3.55c-.01-.11.02-.22.1-.29z"/></g><g mask="url(#CAF_svg__a)"><path fill="#FFF" fill-rule="evenodd" d="M18.66 17.66c0-.18.15-.33.34-.33h.66c.19 0 .34.15.34.33v.92c0 .05-.02.11-.04.15l-.54 1.08c-.06.11-.17.18-.3.18H19c-.19 0-.34-.14-.34-.33z"/><path d="M19.66 17.33c.19 0 .34.15.34.33v.92c0 .05-.02.11-.04.15l-.54 1.08c-.06.11-.17.18-.3.18H19c-.19 0-.34-.14-.34-.33v-2c0-.18.15-.33.34-.33z"/></g></svg>
